X: 21541
M: C
L: 1/8
K: F
V: 1 staves=3
c>c |\
c2c>c c2c>c | f2c2 z2c>c | B2B2 B2(c>B) | A2z2 z2c>c | c2c>c (cd)(ef) | f2d2 z2Bd |
(dc)cc c2BG | F2z2 z2AA | G2=Bd f2dB | c2c2 z2cc | =B2Bd g2de | Hc4 z2 |: c>c |\
f2d2 z2B>d | (dc)cc c2dB | A2z2 z2c>c | A2c>c A2c>f | f2d2 z2B>d | (dc)cc c2de | f2z2z2 :|
V: 2
V: 3
E2D>D F2G>E | F2F2 F2C>C | E2G2 E2C2 | F2(A>G F2)C>C | F2F>F G2C2 | F2F2 z2EE |


